X: 1491
T: Andrew's Winning Smile
R: reel
M: 4/4
K: Cmajor
C2(3CCC CEGc|BGAF GEDC|G,B,GcB2Bc|B2Bc BGFD|
C2(3CCC CEGc|BGAF GEDC|G,B,GA BGdc|BGAB cAGE|
C2(3CCC CEGc|BGAF GEDC|G,B,GcB2Bc|B2Bc BGFD|
C2(3CCC CEGc|BGAF GEDC|G,B,GA BGdc|BGAB cc'bc'||
afff faba|geee ecGF|EGcG A2dc|BGAB c2ec|
Ad2B cedc|AGGF EGGE|FAdc BGAB|c2c'b c'c'b|
afff faba|geee ecGF|EGcG A2dc|BGAB c2ec|
Ad2B c2GF|E2D2 CEGE|FAdc B2AB|cGED C4||

